svg/fluentui-system-icons/ic_fluent_key_24_regular.svg

<svg width="24" height="24" viewBox="0 0 24 24" fill="none" xmlns="http://www.w3.org/2000/svg">
<path d="M18.2493 6.99982C18.2493 7.69017 17.6896 8.24982 16.9993 8.24982C16.3089 8.24982 15.7493 7.69017 15.7493 6.99982C15.7493 6.30946 16.3089 5.74982 16.9993 5.74982C17.6896 5.74982 18.2493 6.30946 18.2493 6.99982ZM15.4992 2.0498C11.885 2.0498 8.94922 4.98559 8.94922 8.5998C8.94922 8.98701 8.99939 9.36017 9.05968 9.70382C9.07749 9.80529 9.04493 9.89344 8.99046 9.94791L2.75467 16.1837C2.23895 16.6994 1.94922 17.3989 1.94922 18.1282V20.2998C1.94922 21.2663 2.73272 22.0498 3.69922 22.0498H6.19922C7.16572 22.0498 7.94922 21.2663 7.94922 20.2998V19.0498H9.69922C10.3896 19.0498 10.9492 18.4902 10.9492 17.7998V16.0498H12.6992C13.3741 16.0498 13.9241 15.515 13.9484 14.846C14.4451 14.9738 14.9689 15.0498 15.4992 15.0498C19.1134 15.0498 22.0492 12.114 22.0492 8.4998C22.0492 4.86866 19.0963 2.0498 15.4992 2.0498ZM10.4492 8.5998C10.4492 5.81402 12.7134 3.5498 15.4992 3.5498C18.3021 3.5498 20.5492 5.73095 20.5492 8.4998C20.5492 11.2856 18.285 13.5498 15.4992 13.5498C14.8199 13.5498 14.1206 13.3787 13.4947 13.1104C13.2629 13.0111 12.9968 13.0349 12.7864 13.1737C12.5759 13.3125 12.4492 13.5477 12.4492 13.7998V14.5498H10.6992C10.0089 14.5498 9.44922 15.1094 9.44922 15.7998V17.5498H7.69922C7.00886 17.5498 6.44922 18.1094 6.44922 18.7998V20.2998C6.44922 20.4379 6.33729 20.5498 6.19922 20.5498H3.69922C3.56115 20.5498 3.44922 20.4379 3.44922 20.2998V18.1282C3.44922 17.7967 3.58091 17.4788 3.81534 17.2443L10.0511 11.0086C10.4695 10.5902 10.6349 10.0018 10.5371 9.44461C10.4834 9.13865 10.4492 8.8622 10.4492 8.5998Z" fill="#212121"/>
</svg>

<svg xmlns="http://www.w3.org/2000/svg" width="24" height="24"><path d="M18.25 7a1.25 1.25 0 1 1-2.5 0 1.25 1.25 0 0 1 2.5 0ZM15.5 2.05A6.554 6.554 0 0 0 8.95 8.6c0 .387.05.76.11 1.104a.275.275 0 0 1-.07.244l-6.235 6.236a2.75 2.75 0 0 0-.806 1.944V20.3c0 .966.784 1.75 1.75 1.75h2.5a1.75 1.75 0 0 0 1.75-1.75v-1.25H9.7c.69 0 1.25-.56 1.25-1.25v-1.75h1.75a1.25 1.25 0 0 0 1.25-1.204c.496.128 1.02.204 1.55.204a6.554 6.554 0 0 0 6.55-6.55c0-3.631-2.953-6.45-6.55-6.45ZM10.45 8.6a5.054 5.054 0 0 1 5.05-5.05c2.802 0 5.05 2.181 5.05 4.95a5.054 5.054 0 0 1-5.05 5.05c-.68 0-1.38-.171-2.005-.44a.75.75 0 0 0-1.046.69v.75H10.7c-.69 0-1.25.56-1.25 1.25v1.75H7.7c-.69 0-1.25.56-1.25 1.25v1.5a.25.25 0 0 1-.25.25H3.7a.25.25 0 0 1-.25-.25v-2.172c0-.331.132-.65.366-.884l6.236-6.235a1.774 1.774 0 0 0 .486-1.564 4.917 4.917 0 0 1-.088-.845Z"/></svg>
